X: 3315
M: 3/4
L: 1/4
K: G
uG |\
(B2c) | (d2e) | e3 | d2d |\
(e2c) | (g2e) | d3- | d2G |\
(B2c) | (d2e) | (e2d) | (c2B) |\
(A2G) | (c2B) | B3 | A2G |
(B2c) | (d2e) | e3 | d2d |\
(e2f) | (g2B) | d3 | (c2A) |\
(B2d) | (g2b) | (c'2a) | (f2g) |\


